X: 522
%
U:~=!turn!
T: The North of the Grampians
C:Captain Fraser
O:Scotland
B:Keith Norman MacDonald : "The Skye collection of the best reels & strathspeys extant" : 1887
Z:Ralph Palmer
R:Strathspey
M:C
L:1/8
K:F lydian
F | !f!E>FG>A G<EE>c | (E/F/G) G>c c<ed>c | E>FG>A G<cG>E | F>DB,<G, (B,/C/D) F :|
f | !p!e>c (e/f/)g e<cc>f | e<cc>f ((3efg) ((3fga) | e>c ((3efg) e<cc>e | f>dB>G B/c/d f2 |
e>c (e/f/)g e<cc>f | e<cc>f ((3efg) ((3fga) | ((3gfe) ((3dcB) ((3cBA) ((3GFE) | F>DB,<G, B,CD [B,F] |]


